vsc/arrow-circle-right.svg

<svg viewBox="0 0 16 16" xmlns="http://www.w3.org/2000/svg" fill="currentColor" height="1em" width="1em">
  <path d="M8.08074 5.36891L10.2202 7.50833L4.46802 7.50833L4.46802 8.50833L10.1473 8.50833L8.08073 10.5749L8.78784 11.282L11.7444 8.32545L11.7444 7.61835L8.78784 4.6618L8.08074 5.36891Z"/>
  <path d="M8 14C4.68629 14 2 11.3137 2 8C2 4.68629 4.68629 2 8 2C11.3137 2 14 4.68629 14 8C14 11.3137 11.3137 14 8 14ZM8 13C10.7614 13 13 10.7614 13 8C13 5.23858 10.7614 3 8 3C5.23858 3 3 5.23858 3 8C3 10.7614 5.23858 13 8 13Z"/>
</svg>

<svg viewBox="0 0 16 16" xmlns="http://www.w3.org/2000/svg" fill="currentColor" height="1em" width="1em">
  <path d="m8.08 5.369 2.14 2.14H4.468v1h5.68L8.08 10.574l.707.707 2.956-2.957v-.707L8.788 4.662l-.707.707Z"/>
  <path d="M8 14A6 6 0 1 1 8 2a6 6 0 0 1 0 12Zm0-1A5 5 0 1 0 8 3a5 5 0 0 0 0 10Z"/>
</svg>
